X:1
T:Montego Bay, 87.87 D
T:Montego Bay, 87.87 D
T:Harry Sanders, 1895
T:Public Domain Courtesy of the Cyber Hymnal™
C:Harry Sanders, 1895
Z:Public Domain
Z:Courtesy of the Cyber Hymnal™
%%score ( 1 2 ) ( 3 4 )
L:1/8
Q:1/4=95
M:3/4
K:F
V:1 treble 
V:2 treble 
V:3 bass 
V:4 bass 
V:1
 C2 | [CA][FA] [FA]2 [Ac]2 | [Ac][GB] [GB]2 [EG]2 | F[EG] [FA]2 [GB]2 | [FA]!>(! [EG]3!>)! C2 | %5
 [CA][FA] [FA]2 [Ac]2 | [Bd][DB] [DB]2 [Fd]2 | [Fc][CF] [DB]2 [CA]2 | [EG]!>(! [CF]3!>)! C2 | %9
 cc!>(! c2!>)! C2 | cc c2 C2 | [CF][EG] [FA]2 [GB]2 | [FA]!>(! [EG]3!>)! C2 | %13
 [CF][EG] [FA]2 [GB]2 | [Ac][Bd] [Ac]2 C2 | [CF][FA] [Ac]2 [FA]2 | [EG]!>(! [CF]3!>)! |] %17
V:2
 C2 | x6 | x6 | F x5 | x4 C2 | x6 | x6 | x6 | x4 C2 | cc c2 C2 | cc c2 C2 | x6 | x4 C2 | x6 | %14
 x4 C2 | x6 | x4 |] %17
V:3
 z2 | .[F,,F,]2 .[F,,F,]2 .[F,,F,]2 | [C,F,][C,C] .[C,C]2 .[C,C]2 | [A,,C][C,C] [F,C]2 [B,,D]2 | %4
 [C,C]!>(! [C,C]3!>)! z2 | .[F,,F,]2 .[F,,F,]2 .[F,,F,]2 | [B,,F,][B,,F,] [B,,F,]2 [B,,B,]2 | %7
 [F,A,][F,A,] F,2 F,2 | [C,B,]!>(! [F,A,]3!>)! z2 | CC!>(! C2!>)! z2 | CC!>(! C2!>)! [C,C]2 | %11
 [A,,F,][C,D] [F,C]2 [B,,D]2 | [C,C]!>(! [C,C]3!>)! [C,F,]2 | [A,,F,][C,C] [F,C]2 [F,C]2 | %14
 [F,F][F,F] [F,F]2 [F,A,]2 | [F,A,][F,C] [F,F]2 [F,C]2 | [C,B,]!>(! [F,A,]3!>)! |] %17
V:4
 x2 | x6 | x6 | x6 | x6 | x6 | x6 | x2 F,2 F,2 | x6 | CC C2 x2 | CC C2 x2 | x6 | x6 | x6 | x6 | %15
 x6 | x4 |] %17

